X:173 
T:Peacock's Feather 1 (hornpipe) 
B:CRE3.218 (Cleite na PÃÂÃÂÃÂÃÂ©acÃÂÃÂÃÂÃÂ³ige 1)
F:file ID: cre.3/173peac_f1
R:hornpipe
L:1/8
Q:150
M:C
K:Dm
AG|FDEC (3DED CE|FEFA G2^FG|Add2 dcAG|F2A,=B, CDAG|
FDEC (3DED CE|FEFA (3GAG ^FG|Add2 dcAG|F2D2D2:|
A=B|c2c2 d2Ad|dcA^F G2A=B|c2Ad dcAG|F2A,=B, CDAG|
(3FED EC DCDE|FGFA (3GAG ^FG|Add2 dcAG|(3FGF D2D2:|

%%%

